polaris-icons/icons/new-icons/TapChipMajor.svg

<svg width="20" height="20" viewBox="0 0 20 20" fill="none" xmlns="http://www.w3.org/2000/svg">
<path fill-rule="evenodd" clip-rule="evenodd" d="M10 4.25C8.20507 4.25 6.75 5.70507 6.75 7.5C6.75 7.91421 6.41421 8.25 6 8.25C5.58579 8.25 5.25 7.91421 5.25 7.5C5.25 4.87665 7.37665 2.75 10 2.75C12.6234 2.75 14.75 4.87665 14.75 7.5C14.75 7.91421 14.4142 8.25 14 8.25C13.5858 8.25 13.25 7.91421 13.25 7.5C13.25 5.70507 11.7949 4.25 10 4.25ZM6 15.5L6 11.25C6 10.8358 6.33579 10.5 6.75 10.5L13.25 10.5C13.6642 10.5 14 10.8358 14 11.25V15.5H6ZM4.5 11.25V16.25C4.5 16.6642 4.83579 17 5.25 17H14.75C15.1642 17 15.5 16.6642 15.5 16.25V11.25C15.5 10.0074 14.4926 9 13.25 9L6.75 9C5.50736 9 4.5 10.0074 4.5 11.25ZM8 13.25C8 13.8023 8.44771 14.25 9 14.25C9.55228 14.25 10 13.8023 10 13.25V12.5C10 11.9477 9.55229 11.5 9 11.5C8.44772 11.5 8 11.9477 8 12.5L8 13.25ZM9.25 7.5C9.25 7.08579 9.58579 6.75 10 6.75C10.4142 6.75 10.75 7.08579 10.75 7.5C10.75 7.91421 11.0858 8.25 11.5 8.25C11.9142 8.25 12.25 7.91421 12.25 7.5C12.25 6.25736 11.2426 5.25 10 5.25C8.75736 5.25 7.75 6.25736 7.75 7.5C7.75 7.91421 8.08579 8.25 8.5 8.25C8.91421 8.25 9.25 7.91421 9.25 7.5Z" fill="#4A4A4A"/>
</svg>

<svg viewBox="0 0 20 20" xmlns="http://www.w3.org/2000/svg"><path fill-rule="evenodd" d="M10 4.25a3.25 3.25 0 0 0-3.25 3.25.75.75 0 0 1-1.5 0 4.75 4.75 0 0 1 9.5 0 .75.75 0 0 1-1.5 0 3.25 3.25 0 0 0-3.25-3.25Zm-4 11.25v-4.25a.75.75 0 0 1 .75-.75h6.5a.75.75 0 0 1 .75.75v4.25h-8Zm-1.5-4.25v5c0 .414.336.75.75.75h9.5a.75.75 0 0 0 .75-.75v-5a2.25 2.25 0 0 0-2.25-2.25h-6.5a2.25 2.25 0 0 0-2.25 2.25Zm3.5 2a1 1 0 1 0 2 0v-.75a1 1 0 1 0-2 0v.75Zm1.25-5.75a.75.75 0 0 1 1.5 0 .75.75 0 0 0 1.5 0 2.25 2.25 0 0 0-4.5 0 .75.75 0 0 0 1.5 0Z" fill="#5C5F62"/></svg>
